X:1
T:Dziś przy ołtarzu
T:harm. ks. Andris Solims
T:Dziś przy ołtarzu
C:harm. ks. Andris Solims
%%score { ( 1 2 ) | ( 3 4 ) }
L:1/8
Q:1/4=80
M:3/4
K:C
V:1 treble nm="P1"
V:2 treble 
V:3 bass 
V:4 bass 
V:1
!mf!"^Andante" G2 E2 G2 | c4 B2 | A4 E2 | F4 z2 | D2 F2 A2 | G4 D2 | F4 E2 | E4 z2 | %8
w: 1. przy oł-|ta- rzu|sta- jesz|już,|1. łań- skie|ser- ce|bi- je|Twe,|
w: 2. dziesz przez|ca- ły|ży- wot|swój|2. bem nie-|bies- kim|kar- mił|lud,|
w: 3. w~i- mię|Trój- cy|bę- dziesz|chrzcił,|3. sza- jąc|za- stęp|no- wych|dusz,|
w: 4. bę- dziesz|Sło- wo|Bo- że|siał|4. ni- wę|ludz- kich|serc i|dusz,|
!<(! G2 c2!<)! d2 | e4 d2 | f4 e2 | d4 z2 |!f! f2 e2 d2 | c4 A2 |"^dim."!>(! B4 d2!>)! | c4 z2 |] %16
w: gdy wy- po-|wia- dasz|z~drże- niem|ust:|"To jest Me|Cia- ło,|to Ma|Krew."|
w: 2. mac- niał|go na|ży- cia|bój,|2. po- ko-|ny- wał|wszel- ki|trud.|
w: 3. gdy grzesz-|ni- kom|brak- nie|sił,|3. giem przez|spo- wiedź|złą- czysz|znów.|
w: 4. by lud|Bo- ży|w~wie- rze|trwał,|4. les- two|Bo- że|w~świe- cie|twórz!|
V:2
 E2 C2 E2 | E4 E2 | E4 E2 | D4 x2 | D2 D2 F2 | D4 D2 | D4 D2 | C4 x2 | E2 E2 F2 | G4 F2 | A4 G2 | %11
 F4 x2 | A2 A2 A2 | G4 F2 | G4 F2 | E4 x2 |] %16
V:3
 C2 C2 C2 | G,4 G,2 | A,4 A,2 | A,4 z2 |"^cresc." A,2 A,2 A,2 | G,4 G,2 | G,4 G,2 | G,4 z2 | %8
!<(! C2 G,2!<)! B,2 | C4 B,2 | D4 ^C2 | D4 z2 | D2 ^C2 D2 | =C4 C2 |!>(! D4 B,2!>)! | [G,C]4 z2 |] %16
V:4
 C,2 C,2 C,2 | C,4 C,2 | ^C,4 C,2 | D,4 x2 | D,2 D,2 C,2 | B,,4 B,,2 | B,,4 B,,2 | C,4 x2 | %8
 C,2 C,2 G,2 | C,4 G,2 | D,4 A,2 | D,4 x2 | D,2 E,2 F,2 | E,4 F,2 | G,4 G,2 | C,4 x2 |] %16

